X:34
T:Reven og Bjrnen
R:
C:Trad.
O:Norge - Norvge - Norway
D:Folque
A:
Z:<anamnese@laposte.net> -- http://anamnese.fr.st
M:C
L:1/4
Q:1/4=165
K:Dm %_b
"Dm"A A/A/ A A/A/ | "C"E G/E/ "F"F>E | "Dm"D/^C/ D/E/ F E/D/ | 
"A"E2 A, A,/A,/ | "Dm"A A/A/ A A/A/ | "C"E G/E/ "F"F>E | "Dm"D/^C/ D/E/ F E/D/ |
"A"E A, "Dm"D>D | "A"^C D E F/D/ | E A, A, A,/A,/ | "Dm"A, AAA |
"C"E G "F"F2 | "Dm"DEF E/D/ | "A"E A, "Dm"D z |]
W:Reven han sto inni hola og grov,
W:- Her lier uti sagde reven -
W:Steffa maure fatta i rova og drog.
W:- For bonden slenger vipp uti tirumtapp
W:og Kranselin kom ikkje fr rova slapp.
W:Steffa maure med sitt rosenkinn
W:han vant seier p Kranselin - /.../
